X:62
T:Cozeners THO4.62, The
M:C|
L:1/8
Z:vmp. Peter Dunk 2010/11.from a transcription by Fynn Titford-Mock 2007
B:Thompson's Compleat Collection of 200 Favourite Country Dances Volume IV.
Q:1/2=80
K:Bb
F2|B2 Bd fdcB|gfga b4|fdTcB ecTBA|BdcB AGFE|\
DFBc dB G2|DF=AB cA F2|cBAG F2=E2|F6:|
FGFA cA F2|EFEF GE C2|DEDE FD B,2|cBAG F2F|\
G2b2F2a2|E2g2D2"*"f2|edcB F2A2 "_*orig. Eb"|B6:|

